X: 1
T: Schottis
O: Sweden
M: 4/4
L: 1/8
K: D
|: "D"AB AG F2 A2 | dc de f2 f2 \
|1,3 "A7"ef ec A2A2 | "D"fg fe d2 d2 \
:|2,4 "A7"ef ec A2Bc | "D"d2 d2 d4 :|
|: "A7"g2 gg g2 ag | "D"f2 {g}fd A4 \
|1,3 "A7"e2 {f}ec A2 Bc | "D"dc df a4 \
:|2,4 "A7"ef ec A2 Bc | "D"d2 d2 d4 :|
